X: 1
T: Arcanul B\uatr\^anesc  [Dm]
O: Bukovina, NE Romania
P: AA+(BCDA)x3
M: C
L: 1/16
K: Ddor^G
"A"[|\
"Dm"{^c}[d6d6] ([e^c][fd]) "E"~[g6e6]- [ge]([fd][ec][fd]) |\
"Dm"([ge][af])([af][ge]) [ge]([fd][e^c][fd]) {g}[a4f4] A4 |\
"Dm"{^c}[d6d6] ([e^c][fd]) "E"~[g6e6]- [ge]([fd][ec][fd]) |\
"A7"([ge][af])([af][ge]) [ge]([fd][e^c][fd]) "Dm"[d6A6] !fine!z2 |]
P: vocal:
"B"|:\
"Dm"c4 B4 A4 G4 | A3B c3A d6 z2 |\
A2c2 B2A2 "E"~G4 F4 | "Dm"D2A,2 D2F2 D6 z2 \
"C"::\
"Dm"A6 A2 "E"G4 F4 | "Dm"{G}A2A2 ~GFF2 {G}A6 z2 |
"Dm"A6 A2 "E"~G4 F4 | "A7"{G}A2A2 ~GFF2 "Dm"D6 z2 \
"D":|\
"Dm"D6 F2 "E"~G6 F2 | "Dm"{G}A2A2 ~GFF2 {G}A6 z2 |\
"Dm"D6 F2 "E"~G6 F2 | "A7"A2A2 ~GFF2 "Dm"D6 z2 |]

%%sep 1 1 500
